X:957
T:Xota de La Madalena (XA 66)
T:Jota de La Madalena (XA 66)
R:Xota
C:Tradicional
S:Msica Tradicional Asturiana, (C) Tello & Tito. Asturies, 2001.
S:http://pagina.de/MusTradAst <telloytito@asturies.org>
A:Asturies
O:Llanes
Z:Mtodu de Xuacu Amieva 66
M:3/8
L:1/8
Q:3/8=67
K:C
|ccc|cBG|~AGc-|c B2|~AGF-|F E2|~G F2-|F3|
|BBB|B~AG|~AGc-|c B2|~AGF-|F E2|~G F2-|F3|
|Bcd|~dcd|e2 ~d|c3|eee|~edc|dBc-|c A2|
|BGA-|A F2|G/A/G/F/ E-|E3|eee|~edc|dBc-|c A2|
|BGA-|A B2|~e2 c-|c c/B/A/G/|~AGc|GAG|B2 A-|A B/A/G/F/|
|~GF~A|F~GF|~A2 G-|G c/B/A/G/|~AGc|~eBc|~d2 A-|A d/c/B/A/|
|cG~E|GF~D|CEG|c-c/B/A/G/|~AGc|G~AG|B2 A-|A B/A/G/F/|
|~GF~A|F~GF|A2 G-|G c/B/A/G/|~AGc|~eBc|~d2 A-|A d/c/B/~A/|
|c~G~E|G~F~D|C~EG|c-c/d/c/d/|
|: c B/c/B/c/|B A/B/A/B/|~A~Gc-|c G/A/G/A/|
|~G F/G/ A|A F/G/F/G/|~F E/F/ G-|G c/d/c/d/|
|c B/c/B/c/|B A/B/A/B/|~AGc-|c G/A/G/A/|
|~G F/G/ A|A G/A/B/c/|[1 d/e/d/B/ c-|c c/d/c/d/ :|[2 d/e/d/B/ c-|c3|
